packages/graphiql-react/src/icons/pen.svg

<svg
  height="1em"
  viewBox="0 0 14 14"
  fill="none"
  xmlns="http://www.w3.org/2000/svg"
>
  <path
    d="M0.75 13.25L0.0554307 12.967C-0.0593528 13.2488 0.00743073 13.5719 0.224488 13.7851C0.441545 13.9983 0.765869 14.0592 1.04549 13.9393L0.75 13.25ZM12.8214 1.83253L12.2911 2.36286L12.2911 2.36286L12.8214 1.83253ZM12.8214 3.90194L13.3517 4.43227L12.8214 3.90194ZM10.0981 1.17859L9.56773 0.648259L10.0981 1.17859ZM12.1675 1.17859L12.6978 0.648258L12.6978 0.648257L12.1675 1.17859ZM2.58049 8.75697L3.27506 9.03994L2.58049 8.75697ZM2.70066 8.57599L3.23099 9.10632L2.70066 8.57599ZM5.2479 11.4195L4.95355 10.7297L5.2479 11.4195ZM5.42036 11.303L4.89003 10.7727L5.42036 11.303ZM4.95355 10.7297C4.08882 11.0987 3.41842 11.362 2.73535 11.6308C2.05146 11.9 1.35588 12.1743 0.454511 12.5607L1.04549 13.9393C1.92476 13.5624 2.60256 13.2951 3.28469 13.0266C3.96762 12.7578 4.65585 12.4876 5.54225 12.1093L4.95355 10.7297ZM1.44457 13.533L3.27506 9.03994L1.88592 8.474L0.0554307 12.967L1.44457 13.533ZM3.23099 9.10632L10.6284 1.70892L9.56773 0.648259L2.17033 8.04566L3.23099 9.10632ZM11.6371 1.70892L12.2911 2.36286L13.3517 1.3022L12.6978 0.648258L11.6371 1.70892ZM12.2911 3.37161L4.89003 10.7727L5.95069 11.8333L13.3517 4.43227L12.2911 3.37161ZM12.2911 2.36286C12.5696 2.64142 12.5696 3.09305 12.2911 3.37161L13.3517 4.43227C14.2161 3.56792 14.2161 2.16654 13.3517 1.3022L12.2911 2.36286ZM10.6284 1.70892C10.9069 1.43036 11.3586 1.43036 11.6371 1.70892L12.6978 0.648257C11.8335 -0.216088 10.4321 -0.216084 9.56773 0.648259L10.6284 1.70892ZM3.27506 9.03994C3.26494 9.06479 3.24996 9.08735 3.23099 9.10632L2.17033 8.04566C2.04793 8.16806 1.95123 8.31369 1.88592 8.474L3.27506 9.03994ZM5.54225 12.1093C5.69431 12.0444 5.83339 11.9506 5.95069 11.8333L4.89003 10.7727C4.90863 10.7541 4.92988 10.7398 4.95355 10.7297L5.54225 12.1093Z"
    fill="currentColor"
  />
  <path
    d="M11.5 4.5L9.5 2.5"
    stroke="currentColor"
    stroke-width="1.4026"
    stroke-linecap="round"
    stroke-linejoin="round"
  />
  <path
    d="M5.5 10.5L3.5 8.5"
    stroke="currentColor"
    stroke-width="1.4026"
    stroke-linecap="round"
    stroke-linejoin="round"
  />
</svg>

<svg xmlns="http://www.w3.org/2000/svg" height="1em" fill="none" viewBox="0 0 14 14">
  <path fill="currentColor" d="m.75 13.25-.695-.283a.75.75 0 0 0 .99.972zM12.821 1.833l-.53.53zm0 2.069.53.53zm-2.723-2.723-.53-.53zm2.07 0 .53-.53zM2.58 8.757l.695.283zm.12-.181.531.53zm2.548 2.843-.294-.69zm.172-.116-.53-.53zm-.466-.573c-.865.369-1.536.632-2.219.9-.684.27-1.38.544-2.28.93l.59 1.38a75 75 0 0 1 2.24-.913c.683-.27 1.37-.54 2.257-.918zm-3.51 2.803L3.276 9.04l-1.39-.566-1.83 4.493zm1.787-4.427 7.397-7.397-1.06-1.06L2.17 8.045zm8.406-7.397.654.654 1.06-1.06-.653-.655zm.654 1.663-7.401 7.4 1.06 1.061 7.402-7.4zm0-1.01a.713.713 0 0 1 0 1.01l1.06 1.06a2.213 2.213 0 0 0 0-3.13zm-1.663-.653a.713.713 0 0 1 1.01 0l1.06-1.06a2.213 2.213 0 0 0-3.13 0zm-7.353 7.33a.2.2 0 0 1-.044.067l-1.06-1.06c-.123.122-.22.268-.285.428zm2.267 3.07a1.3 1.3 0 0 0 .409-.276l-1.061-1.06a.2.2 0 0 1 .064-.043z"/>
  <path stroke="currentColor" stroke-linecap="round" stroke-linejoin="round" stroke-width="1.403" d="m11.5 4.5-2-2m-4 8-2-2"/>
</svg>
